dist/svgs/crypto-icons/icons/bat.svg

<?xml version="1.0" encoding="UTF-8" standalone="yes"?>
<svg xmlns="http://www.w3.org/2000/svg" xmlns:xlink="http://www.w3.org/1999/xlink" width="512px" height="512px" viewBox="0 0 384 384" version="1.1">
  <g id="surface1">
    <path style=" stroke:none;fill-rule:nonzero;fill:rgb(0%,0%,0%);fill-opacity:1;" d="M 181.332031 21.863281 L 0 335.9375 L 112.625 270.917969 L 181.332031 151.910156 Z M 260.960938 289.347656 L 122.699219 289.347656 L 10.074219 354.371094 L 373.582031 354.371094 Z M 202.332031 151.917969 L 271.035156 270.917969 L 383.660156 335.941406 L 202.332031 21.871094 Z M 202.332031 151.917969 "/>
  </g>
</svg>

<svg xmlns="http://www.w3.org/2000/svg" viewBox="0 0 384 384"><path d="M181.332 21.863L0 335.937l112.625-65.019 68.707-119.008zm79.629 267.485H122.699L10.074 354.37h363.508zm-58.629-137.43l68.703 119 112.625 65.023-181.328-314.07zm0 0"/></svg>
